X:1
T: Creag Mohr
C:Muriel A Johnstone
R:Jig
%Q:180
K:A
M:6/8
L:1/16
|:E2|A3BA2 e4e2|A4B2 G2F2E2|F4A2 E4A2|B2d2c2 B4E2|
A3BA2 e4e2|A4B2 G2F2E2|F4B2 G2F2E2|A2E2C2 A,4:|
|:c2|e3fe2 a4a2|e3fe2 a4a2|f2g2a2 e2c2A2|c2B2B2 B2c2d2|
e3fe2 a4a2|e3fe2 a2g2f2|e2c2A2 B2A2B2|c2A2A2 A4:|
